src/svg/deviantart.svg

<svg height="1000" width="625.0" xmlns="http://www.w3.org/2000/svg">
    <path d="m625 182l-191.8 349.8 14.5 18.6h177.3v249.4h-314.3l-26.3 18-85.4 164c-0.6 0-16.8 16.8-17.9 18h-181.1v-182l182-350.4-14.4-18h-167.6v-249.2h304.7l26.4-18 85.3-164c0.6 0 16.8-16.8 18-18h190.6v181.8z" />
  </svg>

<svg height="1000" width="625" xmlns="http://www.w3.org/2000/svg"><path d="M625 182L433.2 531.8l14.5 18.6H625v249.4H310.7l-26.3 18 -85.4 164c-.6 0 -16.8 16.8 -17.9 18H0v-182L182 467.4l-14.4 -18H0V200.2h304.7l26.4 -18 85.3 -164c.6 0 16.8 -16.8 18 -18H625V182z"/></svg>
